X:4566
T:Native Pe??ing,The. HSJJ.067
O:england
M:6/8
L:1/8
S:HSJ Jackson,Wyresdale,Lancs.1823
R:Jig
A:Lancashire
H:1823
K:Bb
B|d>ed dcB|e>f~g g>ab|f>gf fdB|e3cde|d>ed ~dcB|efg gab|fdBc2f|d3B2:|
|:f|b2b agf| gab fdB|Gcc cdB|A3c2d/-e/|dfd ege|fga bfd|ecB Acf|d3B2:|]


